X: 1
T: Snurrebocken (in D)
O: Sweden, Denmark
M: 3/4
L: 1/8
K: D
|: "D"A>d f>a f>d \
| A>d f>a f>d \
| A>d f>a g>f \
| "A7"f>e e>^d e2 \
| "A7"A>c e>g e>c \
| A>c e>g e>c |
| A>c e>g f>e \
| "D"e>d d>c d2 \
|| "D"f2 f>a g>f \
| "A7"f>e e^d e2 \
| A>c e>g f>e \
| "D"d>e f>g a2 |
| "D"f2 f>a g>f \
| "A7"f>e e^d e2 \
| A>c e>g f>e \
| "D"d2 "fine"d2 z2 \
|| "slower"z3 dcd \
| "G"HB3 dcd \
| "D"HA3 dcd :|
